X:1
T:Gavran
T:John Wall Callcott (1766-1821) Accompaniment added by William Horsley (1774-1858)
T:From "Madoc", Canto XI, by Robert Southey (1774-1843)
T:Gavran
T:public domain
T:public domain
T:public domain
T:public domain
T:public domain
T:public domain
T:public domain
T:public domain
T:public domain
T:public domain
T:public domain
T:public domain
C:John Wall Callcott (1766-1821)
C:Accompaniment added by William Horsley (1774-1858)
Z:From "Madoc", Canto XI,
Z:by Robert Southey (1774-1843)
Z:public domain
%%score [ 1 2 3 ] { ( 4 5 ) | ( 6 7 ) }
L:1/8
Q:1/4=104
M:4/4
K:E
V:1 treble-8 transpose=-12 nm="Counter- tenor"
V:2 treble-8 transpose=-12 nm="Tenor"
V:3 bass nm="Bass"
V:4 treble nm="Piano" snm="Pno."
V:5 treble 
V:6 bass 
V:7 bass 
V:1
!f!"^With spirit" e2 f>g f2 e2 | e2 d2 z4 |!p! e2 d>d c2 B2 | BA G2 z4 |!f! .e2 z2 .c2 z2 | %5
w: Where are the sons of|Gav- ran?|where are the sons of|Gav- * ran?|where, where,|
 .f2 z2 z4 |!p! e3 B A2 G2 | G2 F2 z4 |!f! B/B/B cd e2 f2 | g2 z2 z4 | z4 e>d c2 | %11
w: where,|where his tribe, The|faith- ful?|fol- low- ing their be- lov- ed|Chief,|They the green|
 d2 ef/g/ f2 cd/e/ | d4"^dim." c4 | B8 :| z2 | z8 | z8 | z8 | z4 z2 z!p! B | B3 B c2 =d2 | %20
w: is- lands _ _ of the _ _|o- cean|sought.|||||The|Land of the De-|
 !courtesy!=d2 c2 z4 | z8 | z8 | z2!f! e2 e3 f | e2 d2 z4 |"^dolce" d3 e f2 d2 | e2 g2 f2 e2 | %27
w: part- ed;|||Them- selves im-|mor- tal,|drink the gales of|bliss, Which o'er Fla-|
 d2 d2 e2{g} f2 | e4 d4 | c4 z2 e2 | d4 z2 f2 | e4 z4 | z2"^espress." B2 B2 B2 | c3 B c2 z B | %34
w: thin- nis breathe *|ter- nal|spring, That|blend, that|blend|what- e- ver|o- dours make the|
 c2 ed fedc | (c2 B2) z4 | z8 | z8 | z2"^dolce" B2 B2 B2 | eded egfe |{d} c3 B c2 z2 | %41
w: gale Of _ eve- * ning _|sweet, _|||what- e- ver|me- * * * * * * *|* lo- dy,|
 z2 B2 e2 g2 | fefe fagf | g3 f e2 z2 | z8 | z8 | z8 | z8 | z8 | z8 | B3 B e4 | d3 c B2 z2 || %52
w: what- e- ver|me- * * * * * * *|* lo- dy,|||||||charms the wood-|tra- ve- ler.|
!mf![Q:1/4=132] B2 | e6 g2 | c2 ec fedc | B2 d2 e4- | e2 c2 f2 e2 | e4 d4 | e2 B2 BAGF | %59
w: In|fields of|joy Have _ they _ their _|home, have they,|_ have they their|home their|home, have they _ their _|
 G2 B2 e4- | e2 c2 c2 fe | d2 B2 B2 e2 | c3 B cBAG | (G2 F2) z2!f! fd | B2 B2 B2 B2 | B8- | %66
w: home, their home,|_ have they their _|home, in fields of|joy have they _ their _|home, _ where _|cen- tral fires main-|tain,|
 B4 z2!f! GB | e2 e2 e2 e2 | e4 z4 | z8 |"^cresc." e3 e B>B A2 | G4 z4 | e3 g f>f e2 | d4 z4 | %74
w: _ where _|cen- tral fires main-|tain,||where one e- me- rald|light,|where one e- me- rald|light|
 e3 e e4 | e3 d d2 d2 | cedc fedc | BdcB edcB | AGAG AcBA | GFGA BGcB | ^AB c2 c2 B2 | %81
w: Through the green|e- le- ment for|e- * ver, _ e- * ver *|flows _ _ _ _ _ _ _|_ _ _ _ _ _ _ _||* * for e- ver|
 e2 e2 c2 fe | d2 B2 B2 ed | c2 c2 B2 e2 | d2 f2 f2 f2 | egfe agfe | dfed gfed | cedc fedc | %88
w: flows, for e- ver _|flows, for e- ver _|flows, for e- ver|flows, for e- ver|flows _ _ _ _ _ _ _|_ _ _ _ _ _ _ _||
 BdcB edcB | cded cBAG | !fermata!F4 z4 |"^cresc." e3 e f4 | Bedf egfe | e8 | d8 | e8 |] %96
w: |||through the green|e- * le- * ment * for *|e-|ver|flows.|
V:2
!f! G2 A>B A2 G2 | G2 F2 z4 |!p! G2 B>B A2 G2 | GF E2 z4 |!f! .c2 z2 .^A2 z2 | .d2 z2 z4 | %6
w: Where are the sons of|Gav- ran?|where are the sons of|Gav- * ran?|where, where,|where,|
!p! B3 G F2 E2 | E2 D2 z4 | z8 |!f! G/G/G AB c2 d2 | e4 c>B ^A2 | B2 B2 B2 B2 | B4"^dim." ^A4 | %13
w: where his tribe, The|faith- ful?||fol- low- ing their be- lov- ed|Chief, They the green|is- lands of the|o- cean|
 B8 :| z2 | z8 | z8 | z8 | z4 z2 z!p! G | G3 G A2 B2 | B2 A2 z4 | z8 | z8 | z2!f! c2 c3 c | %24
w: sought.|||||The|Land of the De-|part- ed;|||Them- selves im-|
 c2 B2 z4 |"^dolce" ^B3 c d2 B2 | c2 e2 d2 c2 | ^B2 B2 c2{e} d2 | c4 ^B4 | c4 z2 c2 | B4 z2 A2 | %31
w: mor- tal,|drink the gales of|bliss, Which o'er Fla-|thin- nis breathe *|ter- nal|spring, That|blend, that|
 G4 z4 | z2"^espress." G2 G2 G2 | A3 G A2 z G | A2 cB dcBA | A2 G2 B2 B2 | A3 G A2 z G | %37
w: blend|what- e- ver|o- dours make the|gale Of _ eve- * ning _|sweet, what- e- ver|o- dours make the|
 A2 cB dcBA | G4 z4 | z8 | z8 | B8- | B8- | B4 z4 |"^ad lib." c3 B c3 B | cAEA cAec | B3 A B3 A | %47
w: gale of _ eve- * ning _|sweet|||charms,|_||charms _ _ _|_ _ _ _ _ _ _ _||
 BGEG BGeB | A3 G A3 G | AFDF AcBA | G3 G ^A4 | B3 ^A B2 z2 || z2 | z8 | z8 | z4 z2!mf! E2 | %56
w: |||* the wood-|tra- ve- ler.||||in|
 A6 c2 | F2 AG BAGF | G2 G2 GFED | E2 G2 B4- | B4 A4- | A2 F2 G2 G2 | A3 G AGFE | (E2 D2) z4 | z8 | %65
w: fields of|joy have _ they _ their _|home, have they _ their _|home, have they|_ their|_ in fields of|joy have they _ their _|home, _||
!p! z2 G2 F2 A2 | AG z2 z4 | z8 | z2!p! c2 B2 G2 | GF z2 z4 |"^cresc." G3 G F>F F2 | E4!f! B4- | %72
w: per- pe- tual|sum- mer,||per- pe- tual|sum- mer,|where one e- me- rald|light, where|
 B3 B c>c c2 | B4 z4 | z8 | B3 B B4 | B3 A A4- | A2 A2 GBAG | F^EFE FAGF | EDEF G4 | F6 F2 | %81
w: _ one e- me- rald|light||Through the green|e- le- ment|_ for e- * ver _|flows _ _ _ _ _ _ _|_ _ _ _ _|* for|
 G4 ^A4 | B2 =A2 G2 G2 | A2 A2 G2 B2 | B2 d2 d2 d2 | d4 c4- | c4 B4- | B4 A4- | A4 G4 | ABcB AGFE | %90
w: e- ver|flows, for e- ver|flows, for e- ver|flows, for e- ver|flows _|_ _||||
 !fermata!D4 z4 |"^cresc." c3 B A4 | G2 A2 B2 c2 | G8 | F8 | G8 |] %96
w: |through the green|e- le- ment for|e-|ver|flows.|
V:3
!f! E,2 E,>E, E,2 E,2 | B,,2 B,,2 z4 |!p! E,2 E,>E, E,2 E,2 | B,,2 E,2 z4 |!f! .C,2 z2 .F,2 z2 | %5
w: Where are the sons of|Gav- ran?|where are the sons of|Gav- ran?|where, where,|
 .D,2 z2 z4 |!p! G,3 E, D,2 E,2 | B,,2 B,,2 z4 | z8 |!f! E,/E,/E, F,G, A,2 B,2 | C4 C,>C, F,2 | %11
w: where,|where his tribe, The|faith- ful?||fol- low- ing their be- lov- ed|Chief, They the green|
 B,,2 C,2 D,2 E,2 | F,4"^dim." F,4 | B,8 :|"^espres." z B, | B,3 B, G,2 E,2 | C,2 z A, F,2 D,2 | %17
w: is- lands of the|o- cean|sought.|Be-|like the crys- tal|Ark, ins- tinct with|
 B,,2 z G,, A,,B,,C,D, | E,F,G,A, B,3!p! E, | E,3 E, E,2 E,2 | A,2 A,2 C2 A,2 | F,2 z2 C,2 D,^E, | %22
w: life, O- be- dient to the|migh- ty Mas- ter, reached The|Land of the De-|part- ed; there be-|like, They in the|
 F,G,A,B, C>C C2 |!f! z2 C2 ^A,2 F,2 | B,2 B,2 z4 |"^dolce" G,3 G, G,2 G,2 | C2 C,2 D,2 E,F, | %27
w: clime of im- mor- ta- li- ty,|Them- selves im-|mor- tal,|drink the gales of|bliss, Which o'er Fla- *|
 G,2 G,2 C2 F,2 | G,4 G,,4 | C,4 z2 ^A,,2 | B,,4 z2 D,2 | E,4 z4 | z8 | z8 | z8 | %35
w: thin- nis breathe e-|ter- nal|spring, That|blend, that|blend||||
 z2"^espress." G,2 G,2 G,2 | F,3 ^E, F,2 z E, | F,2 A,G, B,A,G,F, | E,4 z4 | z2 E,2 E,2 E,2 | %40
w: what- e- ver|o- dours make the|gale of _ eve- * ning _|sweet|what- e- ver|
 A,G,A,G, A,CB,A, | G,3 F, E,2 z2 | D,3 D, D,4 | E,3 E, E,2"^ad lib." z2 | A,3 G, A,3 G, | %45
w: me- * * * * * * *|* lo- dy|charms the wood-|tra- ve- ler|charms _ _ _|
 A,E,C,E, A,E,CA, | G,3 F, G,3 F, | G,E,B,,E, G,E,B,G, | F,3 ^E, F,3 E, | F,D,B,,D, F,A,G,F, | %50
w: _ _ _ _ _ _ _ _|||||
 E,3 E, C,4 | B,,3 B,, B,,2 z2 || z2 | z8 | z8 | z8 | z8 | z8 | z4 z2!mf! B,,2 | E,6 G,2 | %60
w: * the wood-|tra- ve- ler.|||||||In|fields of|
 C,2 E,D, F,E,D,C, | B,,4 E,4 | A,,6 A,,2 | B,,4 z4 | z8 |!p! z2 E,2 B,,2 F,2 | F,E, z2 z4 | z8 | %68
w: joy have _ they _ their _|home, have|they their|home,||per- pe- tual|sum- mer,||
 z2!p! A,2 G,2 E,2 | B,,B,, z2 z4 |"^cresc." C,3 C, D,>D, D,2 | E,4 z4 | G,3 G, ^A,>A, A,2 | %73
w: per- pe- tual|sum- mer,|where one e- me- rald|light,|where one e- me- rald|
 B,4 z4 | z8 | z8 | z8 | z8 | z8 | E,3 E, E,4 | E,3 D, D,2 D,2 | C,E,D,C, F,E,D,C, | %82
w: light||||||Through the green|e- le- ment for|e- * ver, _ e- * ver _|
 B,,C,D,B,, E,D,C,B,, | A,,B,,C,D, E,F,G,A, | B,2 B,2 B,2 B,2 | B,,8- | B,,8- | B,,8- | %88
w: flows _ _ _ _ _ _ _|_ _ _ _ _ _ _ _|* for e- ver|flows|_||
 B,,2 B,,2 B,,2 E,2 | A,,2 A,,2 A,,2 A,,2 | !fermata!B,,4 z4 |"^cresc." C,3 C, D,4 | %92
w: * for e- ver|flows, for e- ver|flows,|through the green|
 E,2 F,2 G,2 A,2 | B,8 | B,,8 | E,8 |] %96
w: e- le- ment for|e-|ver|flows.|
V:4
!f! E2 F>G F2 E2 | E2 D2 z4 |!p! (E2 D2 C2 B,2 | [G,B,][F,A,] G,2) z4 |!f! .E2 z2 .C2 z2 | %5
 .F2 z2 z4 |!p! (E3 x A,2 G,2 | G,2 F,2) z4 |!f! B,2 (CD) E2 F2 | z8 | z4 ([CE]>[B,D]) [^A,C]2 | %11
 D2 EF/G/ F2 CD/E/ | D4"^dim." [^A,C]4 | B,8 :| z2 | z8 | z8 | z8 | z4 z2 z!p! ([G,B,] | %19
 [G,B,]3 [G,B,] [A,C]2 [B,=D]2 | [B,!courtesy!=D]2 [A,C]2) z4 | z8 | z8 | z8 | z8 | %25
 [^B,D]3 [CE] [DF]2 [B,D]2 | [CE]2 [EG]2 [DF]2 [CE]2 | [^B,D]2 [B,D]2({E} [CEG]2 [DF]2) | %28
 [CE]4 [^B,D]4 | C4 z2 ([CE]2 | [B,D]4) z2 ([A,F]2 | [G,E]4) z4 | %32
 z2"^espress." [G,B,]2 [G,B,]2 [G,B,]2 | ([A,C]3 [G,B,] [A,C]2) z [G,B,] | %34
 [CE]2 ([EG][DF]) ([FA][EG][DF][CE]) | ([CE]2 [B,D]2) [G,B,]2 B,2 | A,3 G, A,2 z G, | %37
 A,2 (CB,) (DCB,A,) | G,2"^dolce" B,2 B,2 B,2 | (EDED) (EGFE) | C3 B, C2 z2 | z2 B,2 E2 G2 | %42
 (FEFE) (FAGF) | G3 F E2 z2 | C2 z2 C2 z2 | C2 z2 C2 z2 | B,2 z2 B,2 z2 | B,2 z2 B,2 z2 | %48
 A,2 z2 A,2 z2 | A,2 z2 A,2 z2 | [G,B,]3 [G,B,] [^A,E]4 | [B,D]3 [^A,C] B,2 z2 ||!mf! B,2 | E6 G2 | %54
 C2 (EC) (FEDC) | B,2 D2 E4- | E2 C2 F2 E2 | E4 D4 | %58
 E2[K:bass] [G,B,]2 ([G,B,][F,A,][E,G,][D,F,]) | [E,G,]2 [G,B,]2[K:treble] E4- | E2 C2 C2 FE | %61
 D2 x2 x2 E2 |[I:staff +1] [A,C]3 [G,B,] ([A,C][G,B,][F,A,][E,G,]) |[I:staff -1] x8 | %64
 B,2 B,2 B,2 B,2 |!p! B,8- | B,4 z2!f! (G,B,) | E2 E2 E2 E2 |!p! E4 z4 | z8 | %70
"^cresc." [G,E]3 [G,E] B,2 A,2 | x8 | E3 G F2 E2 | D4 z4 | E3 E E4 | E3 D D2 D2 | CEDC FEDC | %77
 B,DCB, ([G,E][B,D][A,C][G,B,]) | %78
[I:staff +1] ([F,A,][^E,G,][F,A,][E,G,]) ([F,A,][A,C][G,B,][F,A,]) | %79
 ([E,G,][D,F,][E,G,][F,A,])[I:staff -1] (B,G,CB,) | (^A,B,) C2 C2 B,2 | E2 E2 C2 (FE) | %82
 D2 [A,B,]2 B,2 (ED) | C2 C2 B,2 E2 | D2 F2 F2 F2 | (EGFE AGFE) | (DFED GFED) | (CEDC FEDC) | %88
 (B,DCB, EDCB,) | ([A,C][B,D][CE][B,D])[I:staff +1] ([A,C][G,B,][F,A,][E,G,]) |[I:staff -1] x8 | %91
"^cresc." E4 E4 | (B,EDF) (EGFE) | E8 | D8 | E8 |] %96
V:5
[I:staff +1] G,2 (A,>B,) A,2 G,2 | G,2 F,2[I:staff -1] x4 | G,2 B,2 A,2 G,2 | x8 | %4
 .C2 x2 .^A,2 x2 | .D2 x2 x4 | B,3 [G,B,] F,2 E,2 | E,2 D,2 x4 | x8 | x8 | x8 | B,8- | B,4 x4 | %13
 B,8 :| x2 | x8 | x8 | x8 | x8 | x8 | x8 | x8 | x8 | x8 | x8 | x8 | x8 | x8 | x8 | x8 | x8 | x8 | %32
 x8 | x8 | x8 | x8 | x8 | x8 | x8 | x8 | x8 | x4 B,4- | B,8- | B,4 z4 | x8 | x8 | x8 | x8 | x8 | %49
 x8 | x8 | x4 B,2 x2 || x2 | x8 | x8 | x8 | x8 | x8 | x2[K:bass] x6 | x4[K:treble] B,4- | %60
 B,4 A,4- | A,2 x2 x4 | x8 | x8 | x8 | x8 | x8 | x8 | x8 | x8 | x8 | G,4 B,4- | B,4 C4 | x8 | x8 | %75
 B,4 B,4- | B,3 A, A,4- | A,4 x4 | x8 | x8 | x8 | G,4 ^A,4 | A,2 x2 G,2 G,2 | A,4 G,2 B,2 | %84
 B,2 D2 D4 | D4 C4- | C4 B,4- | B,4 A,4- | A,4 G,4 | x8 | x8 | C3 B, A,4 | x8 | x8 | x8 | x8 |] %96
V:6
 E,8 | B,,4 z4 | E,8 | B,,2 E,2 z4 | .C,2 z2 .F,2 z2 | .D,2 z2 z4 | G,3 E, D,2 E,2 | B,,4 z4 | z8 | %9
!f! [E,G,]2 [F,A,][G,B,] [A,C]2 [B,D]2 | [CE]4 C,2 F,2 | B,,2 C,2 D,2 E,2 | F,8 | B,8 :| %14
 z"^espres." B, | B,4 G,2 E,2 | C,2 z A, F,2 D,2 | B,,2 z G,, A,,B,,C,D, | E,F,G,A, B,3 E, | E,8 | %20
 A,4 C2 A,2 | F,2 z2 C,2 D,^E, | F,G,A,B, C4 | z2!f! C2 ^A,2 F,2 | B,4 z4 |"^dolce" G,8 | %26
 C2 C,2 D,2 E,F, | G,4 C2 F,2 | G,4 G,,4 | C,4 z2 ^A,,2 | B,,4 z2 D,2 | E,4 z4 | z8 | z8 | z8 | %35
 z2 G,2 G,2 G,2 | F,3 ^E, F,2 z E, | F,2 A,G, B,A,G,F, | E,4 z4 | z2 E,2 E,2 E,2 | %40
 A,G,A,G, A,CB,A, | G,3 F, E,2 z2 | D,8 | E,4- E,2 z2 | A,2 z2 A,2 z2 | A,2 z2 A,2 z2 | %46
 G,2 z2 G,2 z2 | G,2 z2 G,2 z2 | F,2 z2 F,2 z2 | F,2 z2 F,2 z2 | E,4 C,4 | B,,4- B,,2 z2 || z2 | %53
 z8 | z8 | z4 z2 E,2 | A,6 C2 | F,2 A,G, B,A,G,F, | G,2 z2 z2 B,,2 | E,6 G,2 | C,2 E,D, F,E,D,C, | %61
 z2 [F,B,]2 [G,B,]2 G,2 | x8 |!f! [E,G,]2 [D,F,]2 z2[I:staff -1] FD |[I:staff +1] z8 | %65
 z2 [E,G,]2 [B,,F,]2 [F,A,]2 | [F,A,][E,G,] z2 z4 | z8 | z2 [A,C]2 [G,B,]2 [E,G,]2 | %69
 [B,,G,][B,,F,] z2 z4 | C,4 [D,F,]4 | E,4 z4 | G,4 ^A,4 | B,4 z4 | z8 | z8 | z8 | z8 | z8 | %79
 E,4 [E,G,]4 | F,8 | x8 | x8 | A,,B,,C,D, E,F,G,A, | B,8 | B,,8- | B,,8- | B,,8- | B,,6 E,2 | %89
 A,,8 | !fermata![D,F,]4 z4 | C,4 D,4 | [E,G,]2 [F,A,]2 [G,B,]2 [A,C]2 | [G,B,]8 | [B,,F,]8 | %95
 [E,G,]8 |] %96
V:7
 x8 | x8 | x8 | x8 | x8 | x8 | x8 | x8 | x8 | x8 | x8 | x8 | x8 | x8 :| x2 | x8 | x8 | x8 | x8 | %19
 x8 | x8 | x8 | x8 | x8 | x8 | x8 | x8 | x8 | x8 | x8 | x8 | x8 | x8 | x8 | x8 | x8 | x8 | x8 | %38
 x8 | x8 | x8 | x8 | x8 | x8 | x8 | x8 | x8 | x8 | x8 | x8 | x8 | x8 || x2 | x8 | x8 | x8 | x8 | %57
 x8 | x8 | x8 | x8 | B,,4 E,4 | A,,8 | B,,4 z4 | x8 | x8 | x8 | x8 | x8 | x8 | x8 | x8 | x8 | x8 | %74
 x8 | x8 | x8 | x8 | x8 | x8 | E,3 D, D,4 | C,E,D,C, F,E,D,C, | B,,C,D,B,, E,D,C,B,, | x8 | x8 | %85
 x8 | x8 | x8 | x8 | x8 | !fermata!B,,4 x4 | x8 | x8 | x8 | x8 | x8 |] %96

